X:1
T:Vingt Mélodies
T:C'est un oiseau du bois sauvage
T:5. C'est un oiseau du bois sauvage
T:Augusta Holmès
T:Anonymous
T:Vingt Mélodies
T:Creative Commons copyright waiver (CC0 1.0 Universal) 
T:Creative Commons copyright waiver (CC0 1.0 Universal) 
T:Creative Commons copyright waiver (CC0 1.0 Universal) 
T:Creative Commons copyright waiver (CC0 1.0 Universal) 
C:Augusta Holmès
Z:no_lyricist_info
Z:Creative Commons copyright waiver (CC0 1.0 Universal)
L:1/8
M:3/4
K:D
V:1 treble nm="Voice" snm="Vo."
V:1
 z6 | z6 | z6 |[M:2/4] z4 |[M:3/4] (3F/D/E/ F2 F G>G | B3/2A/4G/4 F2 D>E | F2- F/D/C/B,/ F>F | %7
w: ||||C'est un oi- seau du bois sau-|va- * * ge Qui m'a|dit: * Tu l'ai- me- ras tou-|
 B,2- B, z z2 | (3F/D/E/ F2 F G>G | BA/G/ F2 A>d | c2- c/A/^G/F/ c>c | c2- c z ed/c/ | %12
w: jours. *|C'est u- ne va- gue du ri-|va- * * ge Qui m'a|dit: * Re- nonce a\ tes a-|mours... * Mais cet oi-|
[M:4/4] dB ^Ac BF EG |[M:3/4] F/ z/ D/E/ F2 z/ D/C/B,/ | F4 F2 | F2- F z z2 | z6 | z6 |[M:2/4] z4 | %19
w: seau du bois sau- va- * * *|ge M'a bien dit: Tu l'ai- me-|ras tou-|jours! *||||
[M:3/4] (3F/D/E/ F2 F G>G | B3/2A/4G/4 F2 D>E | F2- F/D/C/B,/ F>F | B,2- B, z z2 | %23
w: Pour u- ne fleur de ta cein-|tu- * * re J'ai don-|né- * ma vie et mon re-|pos. *|
 (3F/D/E/ F2 F G>G | BA/G/ F2 A>d | c2- c/A/^G/F/ c>c | c2- c z ed/c/ |[M:4/4] dB ^Ac BF EG | %28
w: Loin de tes yeux le temps me|du- * * re! Je lan-|guis * pour tes re- gards si|beaux! * Pour u- ne|fleur de ta cein- tu- * * *|
[M:3/4] FD/E/ F2 z/ D/C/B,/ | F4 F2 | F2- F z z2 | z6 | z6 |[M:2/4] z4 |[M:3/4] (3F/D/E/ F2 F G>G | %35
w: re J'ai don- ne/ ma vie et|mon re-|pos! *||||Pour un bai- ser sous les é-|
 B3/2A/4G/4 F2 D>E | F2- F/D/C/B,/ F>F | B,2- B, z z2 | (3F/D/E/ F2 F G>G | BA/G/ F2 A>d | %40
w: toi- * * les J'ai ven-|du- * ma force et mon hon-|neur. *|Pour ta blan- cheur pure et sans|voi- * * les J'ai per-|
 c2- c/A/^G/F/ c>c | c2- c z ed/c/ |[M:4/4] dB ^Ac BF EG |[M:3/4] FD/E/ F2 z/ D/C/B,/ | F4 F2 | %45
w: du * la pu- re- te/ du|coeur! * Pour un bai-|ser sous les é- toi- * * *|les J'ai ven- du ma force et|mon hon-|
 F2- F z z2 | z6 | z6 |[M:2/4] z4 |[M:3/4] (3F/D/E/ F2 F G>G | B3/2A/4G/4 F2 D>E | %51
w: neur! *||||Rien- ne pour- ra bri- ser les|char- * * mes Dont je|
 F2- F/D/C/B,/ F>F | B,2- B, z z2 | (3F/D/E/ F2 F G>G | BA/G/ F2 A>d | c2- c/A/^G/F/ c>c | %56
w: meurs * poer é- ter- nel- le-|ment. *|Je te ver- rai rail- ler mes|lar- * * mes Dans les|bras * de ton nou- vel a-|
 c2- c z ed/c/ |[M:4/4] dB ^Ac BF EG | F/ z/ D/E/ F2 z/ D/C/B,/ F>F |[M:3/4] F2- F z z z/ F/ | %60
w: mant! * Rien ne pour-|ra bri- ser les char- * * *|mes Dont je meurs pour é- ter- nel- le-|ment... * Ta|
 f2 e2- e/d/c/e/ |[M:4/4] dB ^Ac BF EG |[M:3/4] FD/E/ F2- F/D/C/B,/ | F4 F2 |[K:B] B,2- B, z z2 | %65
w: mort seu- * * le rom-|pra les char- * * * * *|mes Dont je meurs * pour é- ter-|nel- le-|ment! *|
 z6 | z6 |[M:2/4] z4 |[M:3/4] z6 | z6 |] %70
w: |||||

